X: 37
T:Schottis frn Idre (D)
M:2/4
L:1/16
Q:70
C:
S:
R:Schottis
O:Sweden
A:Dalarna
N:
K:D
D2F>-A d2d2 | D2F>-A d>-ed>-c | e>-fe>-c A2B>-c | d2c>-B A>-GF>-E |\
D2F>-A d2d2 | D2F>-A d>-ed>-c | e>-fe>-c A2B>-c | d2d2 d2 z2 ::
a2a2 g2e>g | f2-d2 e4 | =f2a>-g {fg}f2e>-d | c>-de>-d c2A2 |\
a2a2 g2e>g | f2-d2 e4 | =f2a>-g {fg}f2e>-d | c>-de>-c d4 :||
